packages/crayons-core/src/components/icon/icon-assets/icons/tracker.svg

<?xml version="1.0" encoding="UTF-8"?>
<svg width="16px" height="16px" viewBox="0 0 16 16" version="1.1" xmlns="http://www.w3.org/2000/svg" xmlns:xlink="http://www.w3.org/1999/xlink">
    <!-- Generator: Sketch 52.6 (67491) - http://www.bohemiancoding.com/sketch -->
    <title>icon/tracker</title>
    <desc>Created with Sketch.</desc>
    <g id="Icons-✅" stroke="none" stroke-width="1" fill="none" fill-rule="evenodd">
        <g id="Icons" transform="translate(-326.000000, -936.000000)" fill="currentColor">
            <g id="icon/tracker" transform="translate(326.000000, 936.000000)">
                <g id="tracker">
                    <path d="M15.3,7.3 C15.6865993,7.3 16,7.61340068 16,8 C16,8.38659932 15.6865993,8.7 15.3,8.7 L14.92,8.7 C14.5709904,11.9797996 11.9797996,14.5709904 8.7,14.92 L8.7,15.3 C8.7,15.6865993 8.38659932,16 8,16 C7.61340068,16 7.3,15.6865993 7.3,15.3 L7.3,14.92 C4.02020044,14.5709904 1.4290096,11.9797996 1.08,8.7 L0.7,8.7 C0.313400675,8.7 -4.73447626e-17,8.38659932 0,8 C4.73447626e-17,7.61340068 0.313400675,7.3 0.7,7.3 L1.08,7.3 C1.4290096,4.02020044 4.02020044,1.4290096 7.3,1.08 L7.3,0.7 C7.29999999,0.44991408 7.43341923,0.218825156 7.64999999,0.0937821928 C7.86658075,-0.0312607703 8.13341925,-0.0312607703 8.35000001,0.0937821928 C8.56658077,0.218825156 8.70000001,0.44991408 8.7,0.7 L8.7,1.08 C11.9797996,1.4290096 14.5709904,4.02020044 14.92,7.3 L15.3,7.3 Z M8,13.56 C11.0684205,13.5544961 13.5544961,11.0684205 13.56,8 C13.56,4.92929679 11.0707032,2.44 8,2.44 C4.92929679,2.44 2.44,4.92929679 2.44,8 C2.44,11.0707032 4.92929679,13.56 8,13.56 Z M8,5.21 C9.54087445,5.21 10.79,6.45912555 10.79,8 C10.79,9.54087445 9.54087445,10.79 8,10.79 C6.45912555,10.79 5.21,9.54087445 5.21,8 C5.21,6.45912555 6.45912555,5.21 8,5.21 Z M8,9.39 C8.76540783,9.38455205 9.38455205,8.76540783 9.39,8 C9.39,7.2323242 8.7676758,6.61 8,6.61 C7.2323242,6.61 6.61,7.2323242 6.61,8 C6.61,8.7676758 7.2323242,9.39 8,9.39 Z" id="Combined-Shape"></path>
                </g>
            </g>
        </g>
    </g>
</svg>

<svg viewBox="0 0 16 16"><path d="M15.3 7.3a.7.7 0 0 1 0 1.4h-.38a7 7 0 0 1-6.22 6.22v.38a.7.7 0 0 1-1.4 0v-.38A7 7 0 0 1 1.08 8.7H.7a.7.7 0 0 1 0-1.4h.38A7 7 0 0 1 7.3 1.08V.7a.7.7 0 1 1 1.4 0v.38a7 7 0 0 1 6.22 6.22h.38zM8 13.56A5.57 5.57 0 0 0 13.56 8 5.56 5.56 0 1 0 8 13.56zm0-8.35a2.79 2.79 0 1 1 0 5.58 2.79 2.79 0 0 1 0-5.58zm0 4.18A1.4 1.4 0 0 0 9.39 8 1.39 1.39 0 1 0 8 9.39z" fill="currentColor" fill-rule="evenodd"/></svg>
